X:1
T: Lost Elephants
R: March
L: 1/8
M: 4/4
K: Dm
Z: ABC transcription by Verge Roller
r: 32
|: "Dm" d2 A2 c2 A2 | "A" BAGA "Dm" F2 D2 | "Dm" DEFG A2 GA | "Dm" d2 A2 "C" c4 |
"Dm" d2 A2 c2 A2 | "A" BAGA "Dm" F2 D2 | "Dm" DEFG FGAd | "A" cAGE | "Dm" D4 :|
K: C
|: "C" CDEF GABc | "F" F2 A2 c2 A2 | "G" G2 B2 d2 B2 | "C" cBAG "G" AGFE |
"C" CDEF GABc | "F" F2 A2 c2 A2 | "G" G2 B2 d2 B2 | "C" cAGE C4 :|
